**harm	**harte	**timestamp	**phrase	**leadinstrument	**kern
*M4/4	*M4/4	*	*	*	*
*G:	*G:	*	*	*	*G:
1r;	N	0	.	r	1r;
=1	=1	=1	=1	=1	=1
*>A_intro	*>A_intro	*>A_intro	*>A_intro	*>A_intro	*>A_intro
1r	N	0.232	newline	crowd	1r
=2	=2	=2	=2	=2	=2
1r	N	2.084	.	crowd	1r
=3	=3	=3	=3	=3	=3
1r	N	3.936	.	crowd	1r
=4	=4	=4	=4	=4	=4
1r	N	5.788	.	crowd	1r
=5	=5	=5	=5	=5	=5
1I	G:maj	7.639	newline	crowd	1G 1b 1dd
=6	=6	=6	=6	=6	=6
1I	G:maj	9.428	.	crowd	1G 1b 1dd
=7	=7	=7	=7	=7	=7
1I	G:maj	11.217	.	crowd	1G 1b 1dd
=8	=8	=8	=8	=8	=8
1I	G:maj	13.005	.	crowd	1G 1b 1dd
=9	=9	=9	=9	=9	=9
*>B_verse	*>B_verse	*>B_verse	*>B_verse	*>B_verse	*>B_verse
1I	G:maj	14.794	newline	voice	1G 1b 1dd
=10	=10	=10	=10	=10	=10
1vi	E:min	16.576	.	voice	1E 1g 1b
=11	=11	=11	=11	=11	=11
1IV	C:maj	18.358	.	voice	1C 1e 1g
=12	=12	=12	=12	=12	=12
1V	D:maj	20.14	.	voice	1D 1f# 1a
=13	=13	=13	=13	=13	=13
1I	G:maj	21.922	newline	voice	1G 1b 1dd
=14	=14	=14	=14	=14	=14
1vi	E:min	23.7	.	voice	1E 1g 1b
=15	=15	=15	=15	=15	=15
1IV	C:maj	25.478	.	voice	1C 1e 1g
=16	=16	=16	=16	=16	=16
1V	D:maj	27.256	.	voice	1D 1f# 1a
=17	=17	=17	=17	=17	=17
*>C_prechorus	*>C_prechorus	*>C_prechorus	*>C_prechorus	*>C_prechorus	*>C_prechorus
1vi	E:min	29.034	newline	voice	1E 1g 1b
=18	=18	=18	=18	=18	=18
1iii	B:min	30.835	.	voice	1B 1dd 1ff#
=19	=19	=19	=19	=19	=19
1IV	C:maj	32.637	.	voice	1C 1e 1g
=20	=20	=20	=20	=20	=20
1V	D:maj	34.439	.	voice	1D 1f# 1a
=21	=21	=21	=21	=21	=21
1V	D:maj	36.24	.	voice	1D 1f# 1a
=22	=22	=22	=22	=22	=22
*>D_chorus	*>D_chorus	*>D_chorus	*>D_chorus	*>D_chorus	*>D_chorus
1I	G:maj	38.042	newline	voice	1G 1b 1dd
=23	=23	=23	=23	=23	=23
1IV	C:maj	39.818	.	voice	1C 1e 1g
=24	=24	=24	=24	=24	=24
1I	G:maj	41.594	.	voice	1G 1b 1dd
=25	=25	=25	=25	=25	=25
1V	D:maj	43.37	.	voice	1D 1f# 1a
=26	=26	=26	=26	=26	=26
1I	G:maj	45.146	newline	voice	1G 1b 1dd
=27	=27	=27	=27	=27	=27
1IV	C:maj	46.903	.	voice	1C 1e 1g
=28	=28	=28	=28	=28	=28
1I	G:maj	48.66	.	voice	1G 1b 1dd
=29	=29	=29	=29	=29	=29
1V	D:maj	50.417	.	voice	1D 1f# 1a
=30	=30	=30	=30	=30	=30
*>E_chorus	*>E_chorus	*>E_chorus	*>E_chorus	*>E_chorus	*>E_chorus
1IV	C:maj	52.174	newline	voice	1C 1e 1g
=31	=31	=31	=31	=31	=31
1Ib	G:maj/3	53.835	.	voice	1g 1B 1dd
=32	=32	=32	=32	=32	=32
1ii7	A:min7	55.495	.	voice	1A 1cc 1ee 1gg
=33	=33	=33	=33	=33	=33
1I	G:maj	57.156	.	voice	1G 1b 1dd
=34	=34	=34	=34	=34	=34
1IV	C:maj	58.816	newline	voice	1C 1e 1g
=35	=35	=35	=35	=35	=35
1Ib	G:maj/3	60.533	.	voice	1g 1B 1dd
=36	=36	=36	=36	=36	=36
1ii7	A:min7	62.25	.	voice	1A 1cc 1ee 1gg
=37	=37	=37	=37	=37	=37
*>A_interlude	*>A_interlude	*>A_interlude	*>A_interlude	*>A_interlude	*>A_interlude
1I	G:maj	63.967	newline	crowd	1G 1b 1dd
=38	=38	=38	=38	=38	=38
1I	G:maj	65.831	.	crowd	1G 1b 1dd
=39	=39	=39	=39	=39	=39
1r	N	67.695	.	crowd	1r
=40	=40	=40	=40	=40	=40
1r	N	69.559	.	crowd	1r
=41	=41	=41	=41	=41	=41
1I	G:maj	71.423	newline	crowd	1G 1b 1dd
=42	=42	=42	=42	=42	=42
1I	G:maj	73.165	.	crowd	1G 1b 1dd
=43	=43	=43	=43	=43	=43
1I	G:maj	74.907	.	crowd	1G 1b 1dd
=44	=44	=44	=44	=44	=44
1I	G:maj	76.65	.	crowd	1G 1b 1dd
=45	=45	=45	=45	=45	=45
*>B_verse	*>B_verse	*>B_verse	*>B_verse	*>B_verse	*>B_verse
1I	G:maj	78.392	newline	voice	1G 1b 1dd
=46	=46	=46	=46	=46	=46
1vi	E:min	80.13	.	voice	1E 1g 1b
=47	=47	=47	=47	=47	=47
1IV	C:maj	81.868	.	voice	1C 1e 1g
=48	=48	=48	=48	=48	=48
1V	D:maj	83.605	.	voice	1D 1f# 1a
=49	=49	=49	=49	=49	=49
1I	G:maj	85.343	newline	voice	1G 1b 1dd
=50	=50	=50	=50	=50	=50
1vi	E:min	87.082	.	voice	1E 1g 1b
=51	=51	=51	=51	=51	=51
1IV	C:maj	88.82	.	voice	1C 1e 1g
=52	=52	=52	=52	=52	=52
1V	D:maj	90.559	.	voice	1D 1f# 1a
=53	=53	=53	=53	=53	=53
*>C_prechorus	*>C_prechorus	*>C_prechorus	*>C_prechorus	*>C_prechorus	*>C_prechorus
1vi	E:min	92.297	newline	voice	1E 1g 1b
=54	=54	=54	=54	=54	=54
1iii	B:min	94.042	.	voice	1B 1dd 1ff#
=55	=55	=55	=55	=55	=55
1IV	C:maj	95.786	.	voice	1C 1e 1g
=56	=56	=56	=56	=56	=56
1V	D:maj	97.531	.	voice	1D 1f# 1a
=57	=57	=57	=57	=57	=57
1V	D:maj	99.276	.	voice	1D 1f# 1a
=58	=58	=58	=58	=58	=58
*>D_chorus	*>D_chorus	*>D_chorus	*>D_chorus	*>D_chorus	*>D_chorus
1I	G:maj	101.021	newline	voice	1G 1b 1dd
=59	=59	=59	=59	=59	=59
1IV	C:maj	102.753	.	voice	1C 1e 1g
=60	=60	=60	=60	=60	=60
1I	G:maj	104.485	.	voice	1G 1b 1dd
=61	=61	=61	=61	=61	=61
1V	D:maj	106.217	.	voice	1D 1f# 1a
=62	=62	=62	=62	=62	=62
1I	G:maj	107.949	newline	voice	1G 1b 1dd
=63	=63	=63	=63	=63	=63
1IV	C:maj	109.68	.	voice	1C 1e 1g
=64	=64	=64	=64	=64	=64
1I	G:maj	111.411	.	voice	1G 1b 1dd
=65	=65	=65	=65	=65	=65
1V	D:maj	113.142	.	voice	1D 1f# 1a
=66	=66	=66	=66	=66	=66
*>E_chorus	*>E_chorus	*>E_chorus	*>E_chorus	*>E_chorus	*>E_chorus
1IV	C:maj	114.873	newline	voice	1C 1e 1g
=67	=67	=67	=67	=67	=67
1Ib	G:maj/3	116.588	.	voice	1g 1B 1dd
=68	=68	=68	=68	=68	=68
1ii7	A:min7	118.303	.	voice	1A 1cc 1ee 1gg
=69	=69	=69	=69	=69	=69
1I	G:maj	120.018	.	voice	1G 1b 1dd
=70	=70	=70	=70	=70	=70
1IV	C:maj	121.733	newline	voice	1C 1e 1g
=71	=71	=71	=71	=71	=71
1Ib	G:maj/3	123.434	.	voice	1g 1B 1dd
=72	=72	=72	=72	=72	=72
1ii7	A:min7	125.135	.	voice	1A 1cc 1ee 1gg
=73	=73	=73	=73	=73	=73
*>A_interlude	*>A_interlude	*>A_interlude	*>A_interlude	*>A_interlude	*>A_interlude
1I	G:maj	126.837	->newline	crowd	1G 1b 1dd
=74	=74	=74	=74	=74	=74
1I	G:maj	128.632	.	crowd	1G 1b 1dd
=75	=75	=75	=75	=75	=75
1r	N	130.428	.	crowd	1r
=76	=76	=76	=76	=76	=76
1r	N	132.223	.	crowd	1r
=77	=77	=77	=77	=77	=77
1I	G:maj	134.019	newline	crowd	1G 1b 1dd
=78	=78	=78	=78	=78	=78
1I	G:maj	135.711	.	crowd	1G 1b 1dd
=79	=79	=79	=79	=79	=79
1I	G:maj	137.403	.	crowd	1G 1b 1dd
=80	=80	=80	=80	=80	=80
1I	G:maj	139.096	.	crowd	1G 1b 1dd
=81	=81	=81	=81	=81	=81
1I	G:maj	140.788	newline	crowd	1G 1b 1dd
=82	=82	=82	=82	=82	=82
1I	G:maj	142.423	.	crowd	1G 1b 1dd
=83	=83	=83	=83	=83	=83
1I	G:maj	144.058	.	crowd	1G 1b 1dd
=84	=84	=84	=84	=84	=84
1I	G:maj	145.693	.	crowd	1G 1b 1dd
=85	=85	=85	=85	=85	=85
1I	G:maj	147.328	.	crowd	1G 1b 1dd
=86	=86	=86	=86	=86	=86
*>E_chorus	*>E_chorus	*>E_chorus	*>E_chorus	*>E_chorus	*>E_chorus
1IV	C:maj	148.963	newline	voice	1C 1e 1g
=87	=87	=87	=87	=87	=87
1Ib	G:maj/3	150.7	.	voice	1g 1B 1dd
=88	=88	=88	=88	=88	=88
1ii7	A:min7	152.436	.	voice	1A 1cc 1ee 1gg
=89	=89	=89	=89	=89	=89
1I	G:maj	154.173	.	voice	1G 1b 1dd
=90	=90	=90	=90	=90	=90
1IV	C:maj	155.909	newline	voice	1C 1e 1g
=91	=91	=91	=91	=91	=91
1Ib	G:maj/3	157.583	.	voice	1g 1B 1dd
=92	=92	=92	=92	=92	=92
1ii7	A:min7	159.257	.	voice	1A 1cc 1ee 1gg
=93	=93	=93	=93	=93	=93
1I	G:maj	160.931	.	voice	1G 1b 1dd
=94	=94	=94	=94	=94	=94
*>_fadeout	*>_fadeout	*>_fadeout	*>_fadeout	*>_fadeout	*>_fadeout
1IV	C:maj	162.606	newline	voice	1C 1e 1g
=95	=95	=95	=95	=95	=95
1Ib	G:maj/3	164.293	.	voice	1g 1B 1dd
=96	=96	=96	=96	=96	=96
1ii7	A:min7	165.98	.	voice	1A 1cc 1ee 1gg
=97	=97	=97	=97	=97	=97
1I	G:maj	167.667	.	voice	1G 1b 1dd
1r;	N	173.572	.	r	1r;
1r;	N	178.121	.	r	1r;
*-	*-	*-	*-	*-	*-
!!!OTL: Saturday Night
!!!COC: Bay City Rollers
!!!BillboardChartDate: 1975/12/13
!!!BillboardPeak: 1
!!!BillboardWeeksOnChart: 17
!!!SampleTargetRank: 5
!!!SampleActualRank: 5
!!!SampleID#: 1228
!!!RDF**harmony: **recip + pitch class of root + harmonic quality
!!!RDF**harte: Chris Harte's syntax, used by MIREX
!!!RDF**phrase: newline = linebreak in original McGill transcription
!!!RDF**timestamp: McGill audio timestamp in seconds
!!!RDF**leadinstrument: original McGill primary instrumentation annotation
!!!RDT: 2017/01/12/
!!!ENC: Nathaniel Condit-Schultz
!!!EST: Awating manual error checking and editing.
